source/svg/icons/eye.svg

<?xml version="1.0" encoding="utf-8"?>
<svg width="1792" height="1792" viewBox="0 0 1792 1792" xmlns="http://www.w3.org/2000/svg"><path d="M1664 960q-152-236-381-353 61 104 61 225 0 185-131.5 316.5t-316.5 131.5-316.5-131.5-131.5-316.5q0-121 61-225-229 117-381 353 133 205 333.5 326.5t434.5 121.5 434.5-121.5 333.5-326.5zm-720-384q0-20-14-34t-34-14q-125 0-214.5 89.5t-89.5 214.5q0 20 14 34t34 14 34-14 14-34q0-86 61-147t147-61q20 0 34-14t14-34zm848 384q0 34-20 69-140 230-376.5 368.5t-499.5 138.5-499.5-139-376.5-368q-20-35-20-69t20-69q140-229 376.5-368t499.5-139 499.5 139 376.5 368q20 35 20 69z" fill="#fff"/></svg>

<svg width="1792" height="1792" viewBox="0 0 1792 1792" xmlns="http://www.w3.org/2000/svg"><path d="M1664 960q-152-236-381-353 61 104 61 225 0 185-131.5 316.5T896 1280t-316.5-131.5T448 832q0-121 61-225-229 117-381 353 133 205 333.5 326.5T896 1408t434.5-121.5T1664 960zM944 576q0-20-14-34t-34-14q-125 0-214.5 89.5T592 832q0 20 14 34t34 14 34-14 14-34q0-86 61-147t147-61q20 0 34-14t14-34zm848 384q0 34-20 69-140 230-376.5 368.5T896 1536t-499.5-139T20 1029Q0 994 0 960t20-69q140-229 376.5-368T896 384t499.5 139T1772 891q20 35 20 69z"/></svg>
